X:1
T:Engelska efter Karl Magnus Pettersson
O:Källna, Skåne
R:Engelska
S:efter Karl Magnus Pettersson
D:Åsbo Spelemän: "Maka daj lite" (ÅSCD0401)
M:2/4
Q:1/4=90
K:D
|: a2af a2af | gbag fedf | a2af a2af | agec d4 :|
|: d2d2 c2A2 | dfag fgec | d2d2 c2A2 | agec d4 :|

